X:1
T:Te Kieldrecht
C:Trad.
O:Vlaanderen
Z:Bart Vanhaverbeke <bvanhaverbeke@unicall.be>
L:1/8
M:6/8
K:C
"C"c3 C2 C |"G7"DED "C"C2 G |G2 G "F"A2 F | "G7" E2 D "C" C2 C ||
w:||| *** Te
"C" C3 C2 E | G3 G2 G | G2 G c2 B | "F" A3 "C" G2 G |
w:Kiel-drecht, te Kiel-drecht, daar zijn de meis-kens koe-ne, Ze vrij-en tot de mid-der-nacht en sla-pen tot de noe-*nen.
"C" G2 G "F" A2 A | "G7" G2 F "C" E2 G | G2 G "E" A2 F | "G7" E2 D "C" C3 |]
w:vrij-en tot de mid-der-nacht en sla-pen tot de noe-*nen.
|:"C" c3 C2 C | "G7" DED "C" C2 G | G2 G "F" A2 F | "G7" E2 D "C" C3 :|
w:Ik maai, is dat* niet fraai? En sla-pen tot de noe-*nen.
W:1. Te Kieldrecht, te Kieldrecht daar zijn de meiskens koene,
W:   Ze vrijen tot de middernacht en slapen tot de noenen.
W:
W:2. Als z'opstaan, als z'opstaan, ze kijken in de wolken.
W:   Ze zeggen: "Wel hoe laat is 't al? Mijn koe staat ongemolken."
W:
W:3. Als z'uitgaan, als z'uitgaan, komt haar de koster tegen :
W:   "Wel koster, zeg, hoe laat is 't al ? Wat uur is 't daar geslegen?"
W:
W:4. "Het uur dat daar geslegen is, dat kunt gij wel bemerken :
W:   De hoogmis is al lang gedaan en 't volk komt van der kerken."
W:
W:5. En als zij komen in de wei, zij zeggen: "koeike blare!
W:   Ik ben hier met mijn lieveken, en zal u dat niet varen?"
